X:206
%%pagewidth 9in
%%vocalfont Baskerville10Pro 14
T:The merchantman
M:6/8
L:1/8
K:C
%%score 1 2
V:1 clef-treble
V:2 clef-bass octave=-1
%%pos vol above
[V:1][DGB]|c>de [FBe]2[Fd] & [EG]2x4|[Ec]3-[Ec]2e|(d>c)B (c>B)A & E2x E2x|^G3-G2[Ec]|
w:There was a rich merc-hant-man,* That was* both grave* and wise,* He
[V:2]G|c3 G3|C2G c3|^G3 A3|E2B e2A,|
[V:1](=G>F)E (E>D)C & D2x B,2x|(E>F)E A2A|G>F[CE] [CA]2[B,G] & C2x4|[CE]3-[CE]2||
w:kill'd* a man* in Ath-ens* town, Great quar-rels there did a-rise.*
[V:2]B,2C ^G,2A,|^G3 A2B & E,3 F,2F|E2C F2G|C3-C2||

